!!!!SEGMENT: pl-wnifc--6826-n_gall-jan-karol--gdybym-byl-mlodszy-op-20-no-1.krn
!!!cenid: 18xx:4059
!!!COM: Gall, Jan Karol
!!!COM-rismID: pe50042628
!!!CDT: 1856-1912
!!!CNT: Polish
!!!OTL: Gdybym był młodszy Op. 20 No. 1
!!!PDT:
!!!AGN:
!!!SMS-siglum: PL-Wnifc
!!!SMS-shelfmark: 6826/n
!!!SMS-shelfwork: W
!!!SMS-variant:
!!!SMS-altvar:
!!!NIFC-rismSourceID: 1001159666
!!!NIFC-rismChildID: 1001159666
!!!NIFC-islandoraID: nifc:213768
!!!URL-pdf-islandora: https://repozytorium.nifc.pl/islandora/object/nifc%3A213768/datastream/PDF/view
!!!URL-scan: https://polish.musicsources.pl/pl/lokalizacje/galeria/druki-muzyczne/16943-gdybym-byl-mlodszy/2 @EN{Scan on Polish Music Sources Website} @PL{Skany w portalu Dziedzictwo Muzyki Polskiej w otwartym dostępie}
!!!ONB-nifc:
!!!OMD: Non troppo lento.
!!!AIN: 1 piano 1 vox
!!!key: C
**kern	**kern	**dynam	**kern	**text	**dynam
*part2	*part2	*part2	*part1	*part1	*part1
*staff3	*staff2	*	*staff1	*staff1	*
*I"Fortepian.	*I"Fortepian.	*	*I"Głos.	*	*
*Ipiano	*Ipiano	*	*Ivox	*	*
*ICklav	*ICklav	*	*ICvox	*	*
*IGacmp	*IGacmp	*	*IGsolo	*	*
*clefF4	*clefG2	*	*clefG2	*	*
*k[]	*k[]	*	*k[]	*	*
*C:	*C:	*	*C:	*	*
*M9/8	*M9/8	*	*M9/8	*	*
=1	=1	=1	=1	=1	=1
*	*^	*	*	*	*
(8CC/L	4.e 4.c 4.G/	4.ryy	p	8%9r	.	.
8GG/	.	.	.	.	.	.
8C/J	.	.	.	.	.	.
4E\)	4g 4c 4G/	4ryy	.	.	.	.
[>8GG/	8r	8ryy	.	.	.	.
4.GG] 4.CC/	8f/L	4.f 4.B\	.	.	.	.
.	8g/	.	.	.	.	.
.	8a/J	.	.	.	.	.
=2	=2	=2	=2	=2	=2	=2
(8CC/L	[4.a/	[4.e [4.c\	<	8%9r	.	.
8GG/	.	.	.	.	.	.
8C/J	.	.	.	.	.	.
4E\)	8a/L]	4e] 4c\]	.	.	.	.
.	8g/	.	.	.	.	.
8E\	8cc/J	8rc	.	.	.	.
4.EE/	4cc 4g#X 4e/	4.ryy	[	.	.	.
.	8b 8g# 8d/	.	.	.	.	.
*	*v	*v	*	*	*	*
=3	=3	=3	=3	=3	=3
(8AA/L	[4.cc [>4.e [4.c/	.	8%9r	.	.
8C/	.	.	.	.	.
8E/J	.	.	.	.	.
4A\)	4cc] 4e] 4c/]	.	.	.	.
(8FF#X/	(>8a 8e 8c/	.	.	.	.
4.BB/	4g 4d#X 4B/	.	.	.	.
.	8f#X 8d# 8A/	.	.	.	.
!!LO:LB:g=original
=4	=4	=4	=4	=4	=4
*	*^	*	*	*	*
4EE/	4g 4e 4G/	2.ryy	>	8%9r	.	.
8CC#X/	8e 8B-X 8G/	.	.	.	.	.
4.DD/)	4fn 4A 4F/)	.	]	.	.	.
.	8A/	.	.	.	.	.
4.GG/	4e/	4.Bn 4.F\	.	.	.	.
.	8d#/	.	.	.	.	.
*	*v	*v	*	*	*	*
=5	=5	=5	=5	=5	=5
[2.CC/	4e 4c 4E/	p	4r	.	.
.	(8e 8c 8G/	.	8r	.	.
.	4.g 4.e 4.c/	.	8e/	Gdy-	.
.	.	.	8f/	-bym	.
.	.	.	8e/	był	.
4.CC/]	4.e 4.c 4.G/)	.	8g/	młod-	.
.	.	.	8f/	-szy	.
.	.	.	8e/	dziew-	.
=6	=6	=6	=6	=6	=6
[2.CC/	4r	.	[4.a/	-czy-	.
.	(8e 8c 8A/	.	.	.	.
.	4.a 4.e 4.c/	.	4a/]	.	.
.	.	.	8a/	-no,	.
4.CC/]	4.e 4.c 4.A/)	.	8cc\	gdy-	.
.	.	.	8b\	-bym	.
.	.	.	8cc\	był	.
!!LO:LB:g=original
=7	=7	=7	=7	=7	=7
[2.CC/	4r	.	4.a/	młod-	.
.	(8f 8d 8A/	.	.	.	.
.	4.a 4.f 4.d/	.	4.d/	-szy,	.
4.CC/]	4.f 4.d 4.A/)	.	4r	.	.
.	.	.	8d/	Ach!	.
=8	=8	=8	=8	=8	=8
[2.CC/	4r	.	[4.f/	pił-	.
.	(8d 8B 8F/	.	.	.	.
.	4.f 4.d 4.B/	.	4f/]	.	.
.	.	.	8f/	-bym	.
4.CC/]	4.e 4.c 4.B-X/)	.	8e/	wten-	.
.	.	.	8d/	-czas	.
.	.	.	8c/	nie	.
=9	=9	=9	=9	=9	=9
[2.FF/	4r	.	4.a-X/	wi-	.
.	(8f 8c 8A-X/	.	.	.	.
.	4.a-X 4.f 4.c/	.	4.f/	-no,	.
4.FF/]	4.f 4.c 4.A-/)	.	4r	.	.
.	.	.	8f/	Lecz	.
!!LO:PB:g=original
=10	=10	=10	=10	=10	=10
[2.DD/	4r	.	4cc\	spoj-	.
.	(8f 8c 8A-X/	.	8a-X/	-rzeń	.
.	4.a-X 4.f 4.c/	.	8a-/	two-	.
.	.	.	8g/	-ich	.
.	.	.	8b-X\	naj-	.
4.DD/]	4.f 4.c 4.A-/)	.	8a-/L	-słod-	.
.	.	.	8g/J	.	.
.	.	.	8f/	-szy	.
=11	=11	=11	=11	=11	=11
[2.GG/	4r	.	4.cc\	ne-	.
.	(8e 8c 8G/	.	.	.	.
.	4g 4e 4c/)	.	8e/	-ktar,	.
.	.	.	8r	.	.
.	(8e 8c 8G/	.	8e/	naj-	.
4.GG/]	4d#X 4c 4F#X/	.	8b/L	-słod-	.
.	.	.	8a/J	.	.
.	8e 8c 8G/)	.	8e/	-szy	.
=12	=12	=12	=12	=12	=12
[2.GGG/	4r	.	2.g/	ne-	.
.	(8d 8B 8F/	.	.	.	.
.	4.f 4.B 4.A/)	.	.	.	.
4.GGG/]	4e 4B 4G/	.	4g/	-ktar	.
.	8d 8B 8F/	.	8g/	dziew-	.
!!LO:LB:g=original
=13	=13	=13	=13	=13	=13
*	*^	*	*	*	*
(8CC/L	4.e 4.c 4.E/	4.ryy	.	4.g/	-czy-	.
8GG/	.	.	.	.	.	.
8C/J	.	.	.	.	.	.
4E\)	4g 4c 4G/	4ryy	.	4c/	-no!	.
[>8GG/	8r	8ryy	.	8r	.	.
4.GG] 4.CC/	8f/L	4.f 4.B\	.	4r	.	.
.	8g/	.	.	.	.	.
.	8a/J	.	.	8r	.	.
=14	=14	=14	=14	=14	=14	=14
(8CC/L	[4.a/	[4.e [4.c\	.	8%9r	.	.
8GG/	.	.	.	.	.	.
8C/J	.	.	.	.	.	.
4E\)	8a/L]	4e] 4c\]	.	.	.	.
.	8g/	.	.	.	.	.
8E\	8cc/J	8rc	.	.	.	.
4.EE/	4cc 4g#X 4e/	4.ryy	.	.	.	.
.	8b 8g# 8d/	.	.	.	.	.
*	*v	*v	*	*	*	*
=15	=15	=15	=15	=15	=15
(8AA/L	[4.cc [>4.e [4.c/	.	8%9r	.	.
8C/	.	.	.	.	.
8E/J	.	.	.	.	.
4A\)	4cc] 4e] 4c/]	.	.	.	.
(8FF#X/	(>8a 8e 8c/	.	.	.	.
4.BB/	4g 4d#X 4B/	.	.	.	.
.	8f#X 8d# 8A/	.	.	.	.
=16	=16	=16	=16	=16	=16
*	*^	*	*	*	*
4EE/	4g 4e 4G/	4ryy	.	8%9r	.	.
8CC#X/	8e 8B-X 8G/	8ryy	.	.	.	.
4.DD/)	4fn 4A 4F/)	4ryy	.	.	.	.
.	8A/	8ryy	.	.	.	.
4.GG/	4e/	4.Bn 4.F\	.	.	.	.
.	8d#X/	.	.	.	.	.
*	*v	*v	*	*	*	*
!!LO:LB:g=original
=17	=17	=17	=17	=17	=17
[2.CC/	4e 4c 4E/	.	4r	.	.
.	(8e 8c 8G/	.	8r	.	.
.	4.g 4.e 4.c/	.	8e/	Ty	.
.	.	.	8f/	byś	.
.	.	.	8e/	mnie	.
4.CC/]	4.e 4.c 4.G/)	.	8g/	mo-	.
.	.	.	8f/	-że	.
.	.	.	8e/	ko-	.
=18	=18	=18	=18	=18	=18
[2.CC/	4r	.	[4.a/	-cha-	.
.	(8e 8c 8A/	.	.	.	.
.	4.a 4.e 4.c/	.	4a/]	.	.
.	.	.	8a/	-ła,	.
4.CC/]	4.e 4.c 4.A/)	.	8cc\	ja-	.
.	.	.	8b\	-sny	.
.	.	.	8cc\	a-	.
=19	=19	=19	=19	=19	=19
[2.CC/	4r	.	4.a/	-nie-	.
.	(8f 8d 8A/	.	.	.	.
.	4.a 4.f 4.d/	.	4d/	-le	.
.	.	.	8r	.	.
4.CC/]	4.f 4.d 4.A/)	.	8r	.	.
.	.	.	8d/	na	.
.	.	.	8d/	tę	.
!!LO:LB:g=original
=20	=20	=20	=20	=20	=20
[2.CC/	4r	.	[4.f/	myśl	.
.	(8d 8B 8F/	.	.	.	.
.	4.f 4.d 4.B/	.	4f/]	.	.
.	.	.	8r	.	.
4.CC/]	4.e 4.c 4.B-X/)	.	8e/	pierś	.
.	.	.	8d/	mi	.
.	.	.	8c/	za-	.
=21	=21	=21	=21	=21	=21
[2.FF/	4r	.	4.a-X/	-drza-	.
.	(8f 8c 8A-X/	.	.	.	.
.	4.a-X 4.f 4.c/	.	4f/	-ła;	.
.	.	.	8r	.	.
4.FF/]	4.f 4.c 4.A-/)	.	4r	.	.
.	.	.	8f/	Bo	.
=22	=22	=22	=22	=22	=22
[2.DD/	4r	.	[4.cc\	wi-	.
.	(8f 8c 8A-X/	.	.	.	.
.	4.a-X 4.f 4.c/	.	4cc\]	.	.
.	.	.	8a-X/	-dzę	.
4.DD/]	4.f 4.c 4.A-/)	.	8a-/	szczę-	.
.	.	.	8g/	-ścia	.
.	.	.	8f/	za	.
!!LO:PB:g=original
=23	=23	=23	=23	=23	=23
[2.GG/	4r	.	4.cc\	wie-	.
.	(8e 8c 8G/	.	.	.	.
.	4g 4e 4c/)	.	4e/	-le	.
.	(8e 8c 8G/	.	8r	.	.
4.GG/]	4d#X 4c 4F#X/	.	8bn\	gdy-	.
.	.	.	8a/	-byś,	.
.	8e 8c 8G/)	.	8e/	ach,	.
=24	=24	=24	=24	=24	=24
[2.GGG/	4r	.	2.g/	gdy-	.
.	(8d 8B 8F/	.	.	.	.
.	4.f 4.B 4.A/)	.	.	.	.
4.GGG/]	4e 4B 4G/	.	4g/	-byś	.
.	8d 8B 8F/	.	8g/	ko-	.
=25	=25	=25	=25	=25	=25
2.CC/	8eL 8c 8E/	.	4.g/	-cha-	.
.	8e 8c 8G/	.	.	.	.
.	8eJ 8c 8G/	.	.	.	.
.	8eL 8c 8G/	.	4c/	-ła.	.
.	8e 8c 8G/	.	.	.	.
.	8eJ 8c 8G/	.	8r	.	.
4.BBB-X/	8e-XL 8d-X 8G/	.	4r	.	.
.	8e- 8d- 8G/	.	.	.	.
.	8e-J 8d- 8G/	.	8r	.	.
!!LO:LB:g=original
=26||	=26||	=26||	=26||	=26||	=26||
!!!OMD: Più mosso.
!!!key: A-
*k[b-e-a-d-]	*k[b-e-a-d-]	*	*k[b-e-a-d-]	*	*
2.AAA-/	8r	.	[4.e-/	Gwiazd	.
.	8e-L 8c 8A-/	.	.	.	.
.	8e-J 8c 8A-/	.	.	.	.
.	8e-L 8c 8A-/	.	8e-/]	.	.
.	8e- 8c 8A-/	.	8f/	bym	.
.	8e-J 8c 8A-/	.	8g/	nie	.
4.CC/	8r	.	8b-\	szu-	<
.	8e-L 8c 8A-/	<	8g/	-kał	.
.	8e-J 8c 8A-/	.	8a-/	na	.
=27	=27	=27	=27	=27	=27
2.BBB-/	8r	.	4.dd-\	nie-	.
.	8fL 8d- 8A-/	.	.	.	.
.	8fJ 8d- 8A-/	.	.	.	.
.	8fL 8d- 8A-/	.	4.f/	-bie	.
.	8f 8d- 8A-/	[	.	.	[
.	8fJ 8d- 8A-/	.	.	.	.
4.EE-/	8r	.	8dd-\	a-	.
.	8e-L 8d- 8G/	.	8cc\	-ni	.
.	8e-J 8d- 8G/	.	8bn\	mie-	.
=28	=28	=28	=28	=28	=28
[2.AAA-/	8r	.	4.cc\	-sią-	.
.	8e-L 8c 8A-/	.	.	.	.
.	8e-J 8c 8A-/	.	.	.	.
.	8e-L 8c 8A-/	.	4.e-/	-ca	.
.	8e- 8c 8A-/	.	.	.	.
.	8e-J 8c 8A-/	.	.	.	.
4.AAA-/]	8e-L 8c 8A-/	.	4r	.	.
.	8e- 8c 8A-/	.	.	.	.
.	8e-J 8c 8A-/	.	8r	.	.
!!LO:LB:g=original
=29	=29	=29	=29	=29	=29
[2.AA-/	8r	<	[4.cc\	A-	<
.	8g-XL 8e- 8c/	.	.	.	.
.	8g-J 8e- 8c/	.	.	.	.
.	8g-L 8e- 8c/	.	8cc\]	.	.
.	8g- 8e- 8c/	.	8cc\	-le	.
.	8g-J 8e- 8c/	.	8cc\	bym	.
4.AA-/]	8g-L 8e- 8c/	.	8ee-\	pa-	.
.	8g- 8e- 8c/	.	8ddn\	-trzał	.
.	8g-J 8e- 8c/	[[	8cc\	na	[
=30	=30	=30	=30	=30	=30
[2.GG/	8r	.	4.ee-\	cie-	.
.	8gnL 8e- 8c/	.	.	.	.
.	8gJ 8e- 8c/	.	.	.	.
.	8gL 8e- 8c/	.	4.g/	-bie	.
.	8g 8e- 8c/	.	.	.	.
.	8gJ 8e- 8c/	.	.	.	.
4.GG/]	8gL 8e- 8c/	.	4r	.	.
.	8g 8e- 8c/	.	.	.	.
!	!	!	!LO:TX:a:i:t=string.	!	!
.	8gJ 8e- 8c/	.	8cc\	Boś	.
=31	=31	=31	=31	=31	=31
2.GG-X/	8r	<	[4.cc\	wię-	<
.	8a-L 8e- 8c/	.	.	.	.
.	8a-J 8e- 8c/	.	.	.	.
.	8a-L 8e- 8c/	.	4cc\]	.	.
.	8a- 8e- 8c/	.	.	.	.
.	8a-J 8e- 8c/	.	8cc\	-cej	.
4.FF/	8r	.	8ee-\	pro-	.
.	8anL 8e- 8c/	.	8ddn\	-mie-	.
.	8aJ 8e- 8c/	[[	8cc\	-nie-	[
!!LO:LB:g=original
=32	=32	=32	=32	=32	=32
[2.BB-/	8r	.	[4.ee-\	-ją-	.
.	8gL 8e- 8B-/	.	.	.	.
.	8gJ 8e- 8B-/	.	.	.	.
!	!	!	!LO:TX:a:i:t=poco rall.	!	!
.	8gL 8e- 8B-/	.	8ee-\]	.	.
.	8g 8e- 8B-/	.	8g/	-ca	.
!	!LO:TX:b:i:t=poco rall.	!	!	!	!
.	8gJ 8e- 8B-/	.	8g/	od	.
4.BB-/]	8f#XL 8e- 8An/	.	8ddn\L	gwiazd,	.
.	8f# 8e- 8A/	.	8cc,\J	.	.
.	8gJ 8e- 8B-/	.	8g/	od	.
=33	=33	=33	=33	=33	=33
[2.BBB-/	8r	.	2.b-\	gwiazd	.
.	8fnL 8e- 8A-X/	.	.	.	.
.	8fJ 8e- 8A-/	.	.	.	.
.	8fL 8e- 8A-/	.	.	.	.
.	8g 8e- 8B-/	.	.	.	.
.	8a-J 8e- 8c/	.	.	.	.
4.BBB-/]	8gL 8dn 8B-/	.	4.b-\	na	.
.	8g 8d 8B-/	.	.	.	.
.	8fJ 8d 8A-/	.	.	.	.
=34	=34	=34	=34	=34	=34
!	!LO:TX:a:i:t=a tempo	!	!LO:TX:a:i:t=a tempo	!	!
8EE-\L	8r	.	4.b-\	nie-	.
8A- 8E-\	8fL 8d-X/	.	.	.	.
8A-J 8E-\	8fJ 8d-/	.	.	.	.
8A-L 8E-\	8fL 8d-/	.	4.e-/	-bie.	.
8G 8E-\	8e- 8d-/	.	.	.	.
8A-J 8E-\	8fJ 8d-/	.	.	.	.
8B-L 8E-\	8gL 8d-/	.	4r	.	.
8F 8E-\	8a- 8d-/	.	.	.	.
8GJ 8E-\	8b-J 8d-/	.	8r	.	.
!!LO:PB:g=original
=35	=35	=35	=35	=35	=35
2.AA-/	8ccL 8c/	.	[4.e-/	Wzgar-	.
.	8e- 8c 8A-/	.	.	.	.
.	8e-J 8c 8A-/	.	.	.	.
.	8e-L 8c 8A-/	.	8e-/]	.	.
.	8e- 8c 8A-/	.	8f/	-dził-	.
.	8e-J 8c 8A-/	.	8g/	-bym	.
4.CC/	8r	.	8b-\	słoń-	.
.	8e-L 8c 8A-/	.	8g/	-ca	.
.	8e-J 8c 8A-/	.	8a-/	ja-	.
=36	=36	=36	=36	=36	=36
2.BBB-/	8r	.	4.dd-\	-sno-	.
.	8fL 8d- 8A-/	.	.	.	.
.	8fJ 8d- 8A-/	.	.	.	.
.	8fL 8d- 8A-/	.	4f/	-ścią	.
.	8f 8d- 8A-/	.	.	.	.
.	8fJ 8d- 8A-/	.	8f/	i	.
4.EE-/	8r	.	8dd-\L	wio-	.
.	8e-L 8d- 8G/	.	8cc\J	.	.
.	8e-J 8d- 8G/	.	8bn\	-sny	.
=37	=37	=37	=37	=37	=37
[2.AAA-/	8r	.	4.cc\	tchnie-	.
.	8e-L 8c 8A-/	.	.	.	.
.	8e-J 8c 8A-/	.	.	.	.
.	8e-L 8c 8A-/	.	4.e-/	-niem.	.
.	8e- 8c 8A-/	.	.	.	.
.	8e-J 8c 8A-/	.	.	.	.
4.AAA-/]	8e-L 8c 8A-/	.	4r	.	.
.	8e- 8c 8A-/	.	.	.	.
.	8e-J 8c 8A-/	.	8cc\	A	<
!!LO:LB:g=original
=38	=38	=38	=38	=38	=38
[2.AA-/	8r	<	[4.cc\	żył-	.
.	8g-XL 8e- 8c/	.	.	.	.
.	8g-J 8e- 8c/	.	.	.	.
.	8g-L 8e- 8c/	.	4cc\]	.	.
.	8g- 8e- 8c/	.	.	.	.
.	8g-J 8e- 8c/	.	8cc\	-bym	.
.	.	[	.	.	[
!	!LO:TX:b:i:t=string.	!	!LO:TX:a:i:t=string.	!	!
4.AA-/]	8g-L 8e- 8c/	.	8ee-\	two-	.
.	8g- 8e- 8c/	.	8ddn\	-ją	.
.	8g-J 8e- 8c/	.	8cc\	mi-	.
=39	=39	=39	=39	=39	=39
[2.GG/	8r	.	4.ee-\	-ło-	.
.	8gnL 8e- 8c/	.	.	.	.
.	8gJ 8e- 8c/	.	.	.	.
.	8gL 8e- 8c/	.	4.g/	-ścią.	.
.	8g 8e- 8c/	.	.	.	.
.	8gJ 8e- 8c/	.	.	.	.
4.GG/]	8gL 8e- 8c/	.	4r	.	.
.	8g 8e- 8c/	.	.	.	.
.	8gJ 8e- 8c/	.	8cc\	Boś	.
=40	=40	=40	=40	=40	=40
[2.FF#X/	8r	<	[4.cc\	ty	<
.	8a-L 8e- 8c/	.	.	.	.
.	8a-J 8e- 8c/	.	.	.	.
.	8a-L 8e- 8c/	.	4cc\]	.	.
.	8a- 8e- 8c/	.	.	.	.
.	8a-J 8e- 8c/	.	8cc\	jest	.
.	.	[	.	.	[
!	!LO:TX:b:i:t=ritard.	!	!LO:TX:a:i:t=ritard.	!	!
4.FF#/]	8a-L 8e- 8c/	.	8ee-\	mo-	.
.	8a- 8e- 8c/	.	8ddn\	-jem	.
.	8a-J 8e- 8c/	.	8cc\	na-	.
!!LO:LB:g=original
=41||	=41||	=41||	=41||	=41||	=41||
!!!key: C
*k[]	*k[]	*	*k[]	*	*
!	!	!LO:DY:t=ff colla parte	!	!	!LO:DY:a
[2.GG/	8r	ff	4.een\	-tchnie-	ff
.	8gL 8en 8c/	.	.	.	.
.	8gJ 8e 8c/	.	.	.	.
.	8gL 8e 8c/	.	8g/	-niem	.
.	8g 8e 8c/	.	8r	.	.
.	8gJ 8e 8c/	.	8g/	i	.
4.GG/]	8anL 8f 8c/	.	8cc/L	słońc,	.
.	8a 8f 8c/	.	8an/J	.	.
.	8fJ 8c 8An/	.	8f/	i	.
=42	=42	=42	=42	=42	=42
[2.GGG/	8r	.	[2.g/	słońc	.
.	8dL 8c 8F/	.	.	.	.
.	8dJ 8c 8F/	.	.	.	.
.	8dL 8c 8F/	.	.	.	.
.	8e 8c 8G/	.	.	.	.
.	8fJ 8c 8A/	.	.	.	.
4.GGG/]	8eL 8B 8G/	.	4g,/]	.	.
.	8e 8B 8G/	.	.	.	.
.	8dJ 8B 8F/	.	8g/	ja-	<[
=43	=43	=43	=43	=43	=43
*	*^	*	*	*	*
!	!LO:TX:a:i:t=a tempo	!	!	!LO:TX:a:i:t=a tempo	!	!
(8CC/L	4.e 4.c 4.E/	4.ryy	.	4.g/	-sno-	.
8GG/	.	.	.	.	.	.
8C/J	.	.	.	.	.	.
4E\)	4g 4c 4G/	4ryy	.	4c/	-ścią.	>
[>8GG/	8r	8r	<	8r	.	]
4.GG] 4.CC/	8f/L	4.f 4.B\	.	4r	.	.
.	8g/	.	.	.	.	.
.	8a/J	.	[[	8r	.	.
!!LO:LB:g=original
=44	=44	=44	=44	=44	=44	=44
(8CC/L	[4.a/	[4.e [4.c\	.	8%9r	.	.
8GG/	.	.	.	.	.	.
8C/J	.	.	.	.	.	.
4E\)	8a/L]	4e] 4c\]	<	.	.	.
.	8g/	.	.	.	.	.
8FF#X/	8eeJ 8cc 8a/	8rc	.	.	.	.
!	!LO:TX:b:i:t=string.	!	!	!	!	!
4.GG/	4ee 4b 4g/	4.ryy	[	.	.	.
.	8dd 8b 8f/	.	.	.	.	.
=45	=45	=45	=45	=45	=45	=45
8CC/L	[4.dd:/	[4.b-X: (4.f:\	.	8%9r	.	.
8GG/	.	.	.	.	.	.
[8C/J	.	.	.	.	.	.
4C/]	8dd/L]	4b-] 4e\)	.	.	.	.
.	8cc/	.	.	.	.	.
8r	8aa/J	8r	<	.	.	.
4e 4c 4B-X\	8gg/L	8ryy	.	.	.	.
.	8ee/	8ryy	.	.	.	.
8r	8cc/J	8ryy	[[	.	.	.
*	*v	*v	*	*	*	*
=46	=46	=46	=46	=46	=46
.	(>8qqa/L	.	.	.	.
.	8qqff/J	.	.	.	.
8FF/	[4.ccc\)	ff	8%9r	.	.
8r	.	.	.	.	.
(8f 8c 8A\	.	.	.	.	.
4a 4f 4c\)	8ccc\L]	.	.	.	.
.	8aa\	.	.	.	.
8r	8ff\J	.	.	.	.
4r	8ee\L	.	.	.	.
.	8gg\	.	.	.	.
8r	8ff\J	.	.	.	.
=47	=47	=47	=47	=47	=47
.	(>8qqf/L	.	.	.	.
.	8qqcc/J	.	.	.	.
!	!LO:N:vis=4	!	!	!	!
8DD/	[4.aa-X\)	.	8%9r	.	.
8r	.	.	.	.	.
(8c 8A-X 8F\	.	.	.	.	.
4f 4c 4A-\)	8aa-\L]	.	.	.	.
.	8ff\	.	.	.	.
8r	8cc\J	.	.	.	.
4r	8bn\L	>	.	.	.
.	8dd\	.	.	.	.
8r	8cc\J	.	.	.	.
!!LO:PB:g=original
=48	=48	=48	=48	=48	=48
.	(>8qqc/L	.	.	.	.
.	8qqg/J	.	.	.	.
8GG/	[4.ee\)	.	8%9r	.	.
8r	.	.	.	.	.
(8c 8G 8E\	.	.	.	.	.
4e 4c 4G\)	8ee\L]	]	.	.	.
.	8dd\	.	.	.	.
8r	8cc\J	.	.	.	.
4.c 4.F#X 4.D\	8b\L	.	.	.	.
.	8dd\	.	.	.	.
.	8cc\J	.	.	.	.
=49	=49	=49	=49	=49	=49
!	!LO:TX:b:i:t=poco rall.	!	!	!	!
.	(>8qqfn/L	.	.	.	.
.	8qqcc/J	.	.	.	.
!	!LO:N:vis=2	!	!	!	!
8GG/	[2.gg\)	.	8%9r	.	.
8r	.	.	.	.	.
(8d 8c 8G\	.	>	.	.	.
4g 4d 4c\)	.	.	.	.	.
8r	.	.	.	.	.
8GG/	4gg\]	.	.	.	.
8r	.	.	.	.	.
8r	8gg 8b 8f\	]]	.	.	.
=50	=50	=50	=50	=50	=50
*	*^	*	*	*	*
(8CC/L	4gg: 4cc: 4e:\	2ryy	p	8%9r	.	.
8GG/	.	.	.	.	.	.
8C/J	8r	.	.	.	.	.
4E\)	4g 4c 4G/	.	.	.	.	.
.	.	8ryy	.	.	.	.
8r	8e/	8ryy	.	.	.	.
4.C 4.FF/	8c/L	4.A-X\	.	.	.	.
.	8d/	.	.	.	.	.
.	8c/J	.	.	.	.	.
=51	=51	=51	=51	=51	=51	=51
(8CC/L	(>4.e 4.c 4.G/	2ryy	.	8%9r	.	.
8GG/	.	.	.	.	.	.
8C/J	.	.	.	.	.	.
4E\)	4g 4c 4G/)	.	>	.	.	.
.	.	8ryy	.	.	.	.
8r	8c/	8ryy	.	.	.	.
4.C 4.FF/	8B/L	4A-X\	.	.	.	.
.	8d/	.	]	.	.	.
.	8c/J	8ryy	.	.	.	.
!!LO:LB:g=original
=52	=52	=52	=52	=52	=52	=52
*^	*	*^	*	*	*	*
*ped	*	*	*	*	*	*	*	*
8CC/L	4.ryy	4.e 4.c 4.G/	4.ryy	4.ryy	pp	8%9r	.	.
N(>[[8CC/	.	.	.	.	.	.	.	.
[>8GG/J	.	.	.	.	.	.	.	.
[2.C/	2.GG_ [2.CC\]]	8r	4.ryy	4.ryy	.	.	.	.
.	.	8E/L	.	.	.	.	.	.
.	.	8G/J	.	.	.	.	.	.
.	.	8c/L	8ryy	4ryy	.	.	.	.
.	.	8e/	[4e\	.	.	.	.	.
.	.	[8g/J	.	8g\	.	.	.	.
*v	*v	*	*	*	*	*	*	*
*	*	*v	*v	*	*	*	*
=53	=53	=53	=53	=53	=53	=53
4C] 4GG] 4CC;/]	4cc;/N)	4.g] 4.e\]	.	4r;	.	.
*Xped	*	*	*	*	*	*
8r;	8r;	.	.	8r;	.	.
4r	4r	4ryy	.	8e/	A-	.
.	.	.	.	8e/	-le	.
8r	8r	8ryy	.	8e/	już	.
4r	4r	4ryy	.	8a/	je-	.
.	.	.	.	8g/	-stem	.
8r	8r	8ryy	.	8f/	za	.
*	*v	*v	*	*	*	*
=54	=54	=54	=54	=54	=54
4r	4r	.	4.f/	sta-	.
8r	8r	.	.	.	.
[4.AA/	[4.e [>4.c [4.A/	.	4e/	-ry	.
.	.	.	8r	.	.
8AA/]	8e] 8c] 8A/]	.	4r	.	.
8r	8r	.	.	.	.
8r	8r	.	8e/	bym	.
=55	=55	=55	=55	=55	=55
4r	4r	.	4a/	mógł	.
8r	8r	.	8a/	dzie-	.
[4.GG/	[4.e [>4.c [4.A/	.	8cc\	-we-	.
.	.	.	8cc\	-czko	.
.	.	.	8r	.	.
8GG/]	8e] 8c] 8A/]	.	4r	.	.
8r	8r	.	.	.	.
8r	8r	.	8cc\	za-	.
!!LO:LB:g=original
=56	=56	=56	=56	=56	=56
4r	4r	.	[4.ee\	-żą-	.
8r	8r	.	.	.	.
[4.FF#X/	[4.e [>4.c [4.A/	.	4ee\]	.	.
.	.	.	8cc\	-dać	.
8FF#/]	8e] 8c] 8A/]	.	8cc\	ser-	.
8r	8r	.	8b\	-ca	.
8r	8r	.	8a/	o-	.
=57	=57	=57	=57	=57	=57
4r	4r	.	4.b\	-fia-	.
8r	8r	.	.	.	.
[4.GG/	[4.e [4.B/	.	4e/	-ry,	.
.	.	.	8r	.	.
8GG/]	8e] 8B/]	.	4r	.	.
8r	8r	.	.	.	.
8r	8r	.	8g/	więc	.
=58	=58	=58	=58	=58	=58
4r	4r	.	[4.f#X/	ba-	.
8r	8r	.	.	.	.
4.AA/	4.f#X 4.e 4.c/	.	4f#/]	.	.
.	.	.	8f#/	-wię	.
4.AA#X/	4.g 4.e 4.c/	.	8g/	tyl-	.
.	.	.	8e/	-ko	.
.	.	.	8cc\	pios-	.
=59	=59	=59	=59	=59	=59
2.BB/	2.g 2.e 2.B/	.	4.b\	-necz-	.
.	.	.	4b\	-ką	.
.	.	.	8r	.	.
4r	4r	.	4r	.	.
8r	8r	.	8e/	Bom	.
!!LO:LB:g=original
=60	=60	=60	=60	=60	=60
4r	4r	.	[4.g/	już	.
8r	8r	.	.	.	.
[4.BBB/	[4.d#X [>4.B [4.A/	.	8g/]	.	.
.	.	.	8r	.	.
.	.	.	8r	.	.
8BBB/]	8d#] 8B] 8A/]	.	4r	.	.
8r	8r	.	.	.	.
8r	8r	.	8d#X/	za	.
=61	=61	=61	=61	=61	=61
*^	*^	*	*	*	*
N(>8EE/L	8ryy	4r	4ryy	.	4.f#X/	sta-	.
8BB/	8ryy	.	.	.	.	.	.
8E/J	8ryy	8r	8ryy	.	.	.	.
4r	4ryy	8G/L	8ryy	.	4e/	-ry.	.
.	.	8B/	8ryy	.	.	.	.
8r	8ryy	8e/J	8ryy	.	8r	.	.
8E/L	4.C#X\	8g/L	4.B-X\	.	4r	.	.
8Fn/	.	8fn/	.	.	.	.	.
8G/J	.	8e/J	.	.	8r	.	.
=62	=62	=62	=62	=62	=62	=62	=62
4.F/	[2.D\	8f/L	4.A\	<	8%9r	.	.
.	.	8g/	.	.	.	.	.
.	.	8g#X/J	.	[	.	.	.
4c/	.	8a/L	[4.f\	.	.	.	.
.	.	8ee/	.	.	.	.	.
8B/	.	8dd/J	.	.	.	.	.
8A/L	4.D\]	8cc/L	4f\]	>	.	.	.
8F/	.	8a/	.	.	.	.	.
8A/J	.	8f/J	8c\	.	.	.	.
=63	=63	=63	=63	=63	=63	=63	=63
2.G/	[2.GG\	4.e/	[2.B\	.	8%9r	.	.
.	.	4.d/N)	.	]	.	.	.
4.F/	4.GG\]	4.d#X/	4.B\]	.	.	.	.
*v	*v	*	*	*	*	*	*
*	*v	*v	*	*	*	*
!!LO:PB:g=original
=64	=64	=64	=64	=64	=64
[2.CC/	4e 4c 4E/	.	4r	.	.
.	(8e 8c 8G/	.	8r	.	.
.	4.g 4.e 4.c/	.	8.e/	Śmie-	.
.	.	.	16f/	-ję	.
.	.	.	8e/	się	.
4.CC/]	4.e 4.c 4.G/)	.	8g/	i	.
.	.	.	8f/	pi-	.
.	.	.	8e/	-ję	.
=65	=65	=65	=65	=65	=65
[2.CC/	4r	.	[4.a/	wi-	.
.	(8e 8c 8A/	.	.	.	.
.	4.a 4.e 4.c/	.	8a/]	.	.
.	.	.	8a/	-no	.
.	.	.	8a/	mie-	.
4.CC/]	4.e 4.c 4.A/)	.	8cc\L	-sza-	.
.	.	.	8b\J	.	.
.	.	.	8cc\	-ne	.
=66	=66	=66	=66	=66	=66
[2.CC/	4r	.	4.a/	z_łza-	.
.	(8f 8d 8A/	.	.	.	.
.	4.a 4.f 4.d/	.	4d/	-mi	.
.	.	.	8r	.	.
4.CC/]	4.f 4.d 4.A/)	.	4r	.	.
.	.	.	8d/	I	.
!!LO:LB:g=original
=67	=67	=67	=67	=67	=67
[2.CC/	4r	.	[4.f/	pa-	.
.	(8d 8B 8F/	.	.	.	.
.	4.f 4.d 4.B/	.	4f/]	.	.
.	.	.	8f/	-trzę	.
4.CC/]	4.e 4.c 4.B-X/)	.	8e/	pię-	.
.	.	.	8d/	-kna	.
.	.	.	8c/	dziew-	.
=68	=68	=68	=68	=68	=68
[2.FF/	4r	.	4.a-X/	-czy-	.
.	(8f 8c 8A-X/	.	.	.	.
.	4.a-X 4.f 4.c/	.	4f/	-no.	.
.	.	.	8r	.	.
4.FF/]	4.f 4.c 4.A-/)	.	4r	.	.
.	.	.	8f/	W_swą	.
=69	=69	=69	=69	=69	=69
[2.DD/	4r	.	[4.cc\	prze-	.
.	(8f 8c 8A-X/	.	.	.	.
.	4.a-X 4.f 4.c/	.	8cc\]	.	.
.	.	.	8a-X/	-szłość	.
.	.	.	8a-/	po-	.
4.DD/]	4.f 4.c 4.A-/)	.	8a-/L	-kry-	.
.	.	.	8g/J	.	.
.	.	.	8f/	-tą	.
!!LO:LB:g=original
=70	=70	=70	=70	=70	=70
[2.GG/	4r	.	4.cc\	mgła-	.
.	(8e-X 8c 8G/	.	.	.	.
.	4.g 4.e- 4.c/	.	8e-X/	-mi,	.
.	.	.	8r	.	.
.	.	.	8e-/	po-	.
4.GG/]	4.e- 4.c 4.G/)	.	8e-/L	-kry-	.
.	.	.	8d/J	.	.
.	.	.	8c/	-tą	pp
=71	=71	=71	=71	=71	=71
[2.FF/	4r	.	4.b-X\	mgła-	.
.	(8d 8c 8A-X/	.	.	.	.
.	4.a-X 4.d 4.c/	.	4a-X/	-mi.	.
.	.	.	8r	.	.
4.FF/]	4.d 4.c 4.A-/)	.	4r	.	.
.	.	.	8r	.	.
=72	=72	=72	=72	=72	=72
[2.GG/	4r	.	4r	.	.
.	(8d 8c 8G/	.	8r	.	.
.	4.g 4.d 4.c/	.	4r	.	.
.	.	.	8g/	I	.
4.GG/]	4.d 4.Bn 4.F/)	.	4g/	pi-	<
.	.	.	8g/	-ję	.
!!LO:LB:g=original
=73	=73	=73	=73	=73	=73
*	*^	*	*	*	*
(8CC/L	4.en 4.c 4.En/	4.ryy	.	4.g/	wi-	.
8GG/	.	.	.	.	.	[
8C/J	.	.	.	.	.	.
4E\)	4g 4c 4G/	4ryy	.	4c/	-no.	.
[>8GG/	8r	8ryy	.	8r	.	.
4.GG] 4.CC/	8f/L	4.f 4.B\	.	4r	.	.
.	8g/	.	.	.	.	.
.	8a/J	.	.	8r	.	.
=74	=74	=74	=74	=74	=74	=74
(8CC/L	(4.a/	[4.e [4.c\	.	8%9r	.	.
8GG/	.	.	.	.	.	.
8C/J	.	.	.	.	.	.
4E\)	4g/)	4e] 4c\]	.	.	.	.
[>8GG/	8r	8ryy	.	.	.	.
4.GG] 4.CC/	8f/L	4.f 4.B\	.	.	.	.
.	8g/	.	.	.	.	.
.	8a/J	.	.	.	.	.
=75	=75	=75	=75	=75	=75	=75
(8CC/L	[4.a/	[4.e [4.c\	.	8%9r	.	.
8GG/	.	.	.	.	.	.
8C/J	.	.	.	.	.	.
!	!LO:TX:b:i:t=rall.	!	!	!	!	!
8E\)	8a/L]	8e] 8c\]	.	.	.	.
8r	8g/	8r	.	.	.	.
8r	8cc/J	8rc	.	.	.	.
4.B 4.A-X 4.C\	8dd/L	4.f\	>	.	.	.
.	8cc/	.	.	.	.	.
.	8dd/J	.	]]	.	.	.
*	*v	*v	*	*	*	*
=76	=76	=76	=76	=76	=76
4.c 4.G 4.C\	[4.ee [>4.g [4.e/	pp	8%9r;	.	.
4CC;/	4ee] 4g] 4e;/]	.	.	.	.
8r	8r	.	.	.	.
4r	4r	.	.	.	.
8r	8r	.	.	.	.
==	==	==	==	==	==
*-	*-	*-	*-	*-	*-
!!!system-decoration: <vox>{(klav)}
!!!RDF**kern: > = above
!!!RDF**kern: < = below
!!!RDF**kern: N = linked
!!!ENC: Berenika Jozajtis
!!!END: 2022-08-16
!!!ENC: Andrzej Kubiczek
!!!END: 2022-09-17!!!YEC: Copyright 2022 Narodowy Instytut Fryderyka Chopina (https://polishscores.org)
!!!YEM: License CC-BY-4.0 (https://creativecommons.org/licenses/by/4.0)
